theme-base/src/main/assets/themes/mapsforgeV3/base/osmc/frg_shell_modern.svg

<svg enable-background="new 0 0 24 24" height="24" viewBox="0 0 24 24" width="24" xmlns="http://www.w3.org/2000/svg"><path d="m3.407 14.111s-1.116-1.767-1.098-2.288c.019-.521 1.173-2.347 1.173-2.347l.027-2.038.886.028.036.456 2.458-3.79.895.448-2.682 4.162 6.647-5.948.651.548-6.572 6.097 10.762-5.641.409.763-10.743 5.735 13.872-3.352.203.819-13.758 3.548 15.117.159v.875l-15.043-.113 13.76 3.836-.196.818-14.058-3.62 10.92 6.152-.502.783-10.854-6.043 6.46 6.416-.596.633-6.553-6.33 2.372 4.338-.79.457-2.271-3.873-.019.383h-.977z" fill="#e9bf1e" stroke="#e9bf1e" stroke-width=".75"/></svg>

<?xml version="1.0" encoding="iso-8859-1"?>
<!-- Generator: Adobe Illustrator 14.0.0, SVG Export Plug-In . SVG Version: 6.00 Build 43363)  -->
<!DOCTYPE svg PUBLIC "-//W3C//DTD SVG 1.1//EN" "http://www.w3.org/Graphics/SVG/1.1/DTD/svg11.dtd">
<svg version="1.1" id="Vrstva_1" xmlns="http://www.w3.org/2000/svg" xmlns:xlink="http://www.w3.org/1999/xlink" x="0px" y="0px"
	 width="24px" height="24px" viewBox="0 0 24 24" style="enable-background:new 0 0 24 24;" xml:space="preserve">
<g>
	<path id="path2030_1_" style="fill:#E9BF1E;stroke:#E9BF1E;stroke-width:0.75;" d="M3.407,14.111c0,0-1.116-1.767-1.098-2.288
		c0.019-0.521,1.173-2.347,1.173-2.347l0.027-2.038l0.886,0.028l0.036,0.456l2.458-3.79l0.895,0.448L5.102,8.742l6.647-5.948
		l0.651,0.548L5.828,9.439L16.59,3.798l0.409,0.763L6.256,10.296l13.872-3.352l0.203,0.819L6.573,11.311L21.69,11.47v0.875
		L6.647,12.232l13.76,3.836l-0.196,0.818L6.153,13.266l10.92,6.152l-0.502,0.783L5.717,14.158l6.46,6.416l-0.596,0.633l-6.553-6.33
		L7.4,19.215L6.61,19.672l-2.271-3.873L4.32,16.182H3.343L3.407,14.111z"/>
</g>
</svg>
